X:2518
T:Cantar de Boda (CT 374)
R:Boda
C:Tradicional
S:Música Tradicional Asturiana, (C) Tello & Tito. Asturies, 2001.
S:http://pagina.de/MusTradAst <telloytito@asturies.org>
N:Canción de Boda, transcrita en L.leitariegos.
O:L.leitariegos
A:Asturies
Z:Cancioneru de Torner 374
M:3/4
L:1/8
Q:1/4=96
W:Buenos días, los padrinos,
W:los novios y el señor cura,
W:que al a verdad representan
W:virtud, amor y hermosura.
K:Gm
^FG BB cd|(B3/2(3c/4B/4A/4 G4)|^FG BB cd|
(B3/2(3c/4B/4A/4) (GA/2_B/2 c2)|GB GB AG|^FD- D2 z2|
^FG BB cd|(B3/2(3A/4B/4A/4 G2) z2||



X.N. Expósito)
M:2/4
L:1/8
Q:1/4=120
W:Ya se secaron las rosas
W:ya florecieron los claveles
W:ya se despide la niña
W:de todas las compañeras.
W:
W:La moza que hoy se casó
W:siempre fue muy divertida
W:por Dios-y pido Galán
W:que no haga mala vida.
W:
W:Adios casa de mis padres
W:ventanas y corredores.
W:Adios hermanos queridos
W:que me voy con mis amores.
W:
W:La madrina es una rosa
W:el padrino es un clavel
W:la novia es un espejo
W:el novio se mira en él.
K:Dm
DA|:AA AG|A2 F2|
AG FE|DC D2|
C2 FF|FE FG|
A2 F2|GG GG|
EC E2|[1 D2 DA:|[2 D2 z2||



X.N. Expósito)
M:2/4
L:1/8
Q:1/4=120
W:Ya se secaron las rosas
W:ya florecieron los claveles
W:ya se despide la niña
W:de todas las compañeras.
W:
W:La moza que hoy se casó
W:siempre fue muy divertida
W:por Dios-y pido Galán
W:que no haga mala vida.
W:
W:Adios casa de mis padres
W:ventanas y corredores.
W:Adios hermanos queridos
W:que me voy con mis amores.
W:
W:La madrina es una rosa
W:el padrino es un clavel
W:la novia es un espejo
W:el novio se mira en él.
K:Bm
"Bm"Bf|:"Bm"ff "Bm"fe|"Bm"f2 "G"d2|
"Bm"fe "Bm"dc|"E/A"BA "Bm"B2|
"F#m"A2 "D"dd|"D"dc "D"de|
"D"f2 "G"d2|"Em"ee "A"ee|
"A"cA "F#m"c2|[1 "Bm"B2 "Bm"Bf:|[2 "Bm"B2 z2||



X.N. Expósito)
S:Música Tradicional Asturiana, (C) Tello & Tito. Asturies, 2001.
S:http://pagina.de/MusTradAst <telloytito@asturies.org>
A:Asturies
G:Arrg.
Z:Curdión
M:2/4
L:1/8
Q:1/4=120
W:Ya se secaron las rosas
W:ya florecieron los claveles
W:ya se despide la niña
W:de todas las compañeras.
W:
W:La moza que hoy se casó
W:siempre fue muy divertida
W:por Dios-y pido Galán
W:que no haga mala vida.
W:
W:Adios casa de mis padres
W:ventanas y corredores.
W:Adios hermanos queridos
W:que me voy con mis amores.
W:
W:La madrina es una rosa
W:el padrino es un clavel
W:la novia es un espejo
W:el novio se mira en él.
K:Dm
"Dm"DA|:"Dm"AA "Dm"AG|"Dm"A2 "Bb"F2|
"Dm"AG "Dm"FE|"G/C"DC "Dm"D2|
"Am"C2 "F"FF|"F"FE "F"FG|
"F"A2 "Bb"F2|"Gm"GG "C"GG|
"C"EC "Am"E2|[1 "Dm"D2 "Dm"DA:|[2 "Dm"D2 z2||



